X: 22303
T: La Ronfleuse Gobeil
R: reel
M: 4/4
K: Dmajor
a2fd Adfa|gece fddf|a2fd Adfa|1 gec2d3f:|2 ge c2d3B|
A2f2 {g}fef2|B2g2 {a}gfg2|A2>c2 eec2|dcde (3fga fd|
A2>f2 {g}fef2|B2g2 {a}gfg2|A3c ec Ac|1 e2d2d2B2:|2 e2d2d2>e2
|:faab afde|fdad ffd2|efga bgef|gebe gfe2|
faab afde|fdad ffd2|fBBA BcdB|AFEF D4:|

